slides/images/diagram-01.svg

<svg height="393.897388" viewBox="0 0 515.16540276 393.89738786" width="515.165403" xmlns="http://www.w3.org/2000/svg" xmlns:xlink="http://www.w3.org/1999/xlink"><mask id="a"><path d="m0 0h465.081689v388.897388h-465.081689z" fill="#fff"/><path d="m282.201363 180.148694h51.692276v33.6h-51.692276z"/></mask><mask id="b"><path d="m0 0h369.013947v385.059267h-369.013947z" fill="#fff"/><path d="m144.672489 178.229633h51.692276v33.6h-51.692276z"/></mask><path d="m0 0h515.165403v393.897388h-515.165403z" fill="#fff"/><path d="m23.25 0c69.1 1.36 137.07-2.49 173.5 0m-173.5 0c67.36-1.53 135.28-.74 173.5 0m0 0c16.18-.84 24.76 7.44 23.25 23.25m-23.25-23.25c14.48 1.63 24.82 6.11 23.25 23.25m0 0c.4 17.67.36 34.09 0 46.5m0-46.5c.71 10.6.55 21.21 0 46.5m0 0c.77 14.14-7.06 24.14-23.25 23.25m23.25-23.25c-1.59 17.43-8.16 24.95-23.25 23.25m0 0c-37.41-1.83-74.44.27-173.5 0m173.5 0c-35.83-.6-71.11.74-173.5 0m0 0c-16.31.84-22.99-8.86-23.25-23.25m23.25 23.25c-16.6-.57-25.46-7.52-23.25-23.25m0 0c-.84-14.68 1.1-28.44 0-46.5m0 46.5c.24-13.28-.58-25.22 0-46.5m0 0c-1.39-16.17 6.38-22 23.25-23.25m-23.25 23.25c-1.56-13.93 8.64-24.36 23.25-23.25" fill="none" stroke="#1e1e1e" stroke-linecap="round" stroke-width="2" transform="translate(110.929599 10)"/><text dominant-baseline="text-before-edge" fill="#1e1e1e" font-family="LocalFont, Segoe UI Emoji" font-size="28" text-anchor="middle" transform="translate(117.545047 39.7)" x="103.384552">tabular data</text><path d="m23.25 0c39.77-.63 82.97 2.04 173.5 0m-173.5 0c44.3.98 90.17-.45 173.5 0m0 0c16.59-1.17 25.02 8.42 23.25 23.25m-23.25-23.25c16.85.73 24.52 6.21 23.25 23.25m0 0c-.14 13.27-.61 24.21 0 46.5m0-46.5c-.53 11.63-.02 22.33 0 46.5m0 0c-1.6 14.16-9.03 24.05-23.25 23.25m23.25-23.25c-.82 17.78-6.16 21.12-23.25 23.25m0 0c-41.35 1.92-78.16-.57-173.5 0m173.5 0c-59.8-1.21-119.61-.87-173.5 0m0 0c-15.54-1.18-22.19-8.87-23.25-23.25m23.25 23.25c-16.43.95-24.06-8.46-23.25-23.25m0 0c-1.25-17.22-.07-34.59 0-46.5m0 46.5c-.36-11.7.71-25.26 0-46.5m0 0c-.18-17.09 6.6-23.51 23.25-23.25m-23.25 23.25c-1.15-14.77 6.66-23.89 23.25-23.25" fill="none" stroke="#1e1e1e" stroke-linecap="round" stroke-width="2" transform="translate(285.165403 290.897388)"/><text dominant-baseline="text-before-edge" fill="#1e1e1e" font-family="LocalFont, Segoe UI Emoji" font-size="28" text-anchor="middle" transform="translate(317.626989 320.597388)" x="77.538414">variables</text><g fill="none" mask="url(#a)" stroke="#1e1e1e" stroke-linecap="round" stroke-width="2"><path d="m-.57.84c19.08 30.74 96.5 152.36 115.76 182.78m-113.87-183.38c18.98 30.99 94.62 154.08 113.52 184.77" transform="translate(251.013312 105)"/><path d="m92.73 168.25c6.35 6.4 14.23 12.24 20.75 17.45m-22.33-18.59c7.34 4.81 15.59 12.3 23.33 18.89" transform="translate(251.013312 105)"/><path d="m110.21 157.5c.08 10.13 1.75 19.79 3.27 28.2m-4.85-29.34c1.25 8.66 3.48 19.85 5.85 29.64" transform="translate(251.013312 105)"/></g><text dominant-baseline="text-before-edge" fill="#1e1e1e" font-family="LocalFont, Segoe UI Emoji" font-size="28" text-anchor="middle" transform="translate(282.201363 180.148694)" x="25.846138">has</text><g fill="none" mask="url(#b)" stroke="#1e1e1e" stroke-linecap="round" stroke-width="2"><path d="m.63.25c-11.05 30.32-55.23 150.48-66.17 180.6m65.05-181.52c-11.28 30.08-55.11 149.85-65.94 179.82" transform="translate(203.350401 105)"/><path d="m-66.01 149.35c.64 11.9.88 23.11-.86 30.71m-.55-30.36c.26 10.26 1.59 21.65.38 28.98" transform="translate(203.350401 105)"/><path d="m-46.73 156.37c-6.38 9.42-13.23 18.05-20.14 23.69m18.73-23.34c-6.73 7.69-12.38 16.54-18.9 21.96" transform="translate(203.350401 105)"/></g><text dominant-baseline="text-before-edge" fill="#1e1e1e" font-family="LocalFont, Segoe UI Emoji" font-size="28" text-anchor="middle" transform="translate(144.672489 178.229633)" x="25.846138">has</text><path d="m23.25 0c70.74 1.56 138.43.93 173.5 0m-173.5 0c44.88.18 90.06 1.23 173.5 0m0 0c17.27.39 22.23 9.26 23.25 23.25m-23.25-23.25c15.29-.04 22.78 8.29 23.25 23.25m0 0c-.96 16.97 2.31 34.29 0 46.5m0-46.5c-.73 11.4.55 23.64 0 46.5m0 0c-1.86 15.42-6.47 24.03-23.25 23.25m23.25-23.25c.78 14.25-7.27 21.76-23.25 23.25m0 0c-42.29 1.37-81.99.64-173.5 0m173.5 0c-45.24-.46-91.85.25-173.5 0m0 0c-17.2-.39-22.6-7.99-23.25-23.25m23.25 23.25c-16.02 1.82-25.48-5.5-23.25-23.25m0 0c.83-9.79-.8-16.91 0-46.5m0 46.5c.76-16.91-.07-31.57 0-46.5m0 0c-.41-16.89 8.97-21.76 23.25-23.25m-23.25 23.25c1.65-13.35 5.99-23.33 23.25-23.25" fill="none" stroke="#1e1e1e" stroke-linecap="round" stroke-width="2" transform="translate(10 287.059267)"/><text dominant-baseline="text-before-edge" fill="#1e1e1e" font-family="LocalFont, Segoe UI Emoji" font-size="28" text-anchor="middle" transform="translate(16.615448 316.759267)" x="103.384552">observations</text></svg>

<svg version="1.1" xmlns="http://www.w3.org/2000/svg" viewBox="0 0 515.1654027554787 393.8973878557315" width="515.1654027554787" height="393.8973878557315">
  <!-- svg-source:excalidraw -->

  <rect x="0" y="0" width="515.1654027554787" height="393.8973878557315" fill="#ffffff"></rect><g stroke-linecap="round" transform="translate(110.92959875210408 10) rotate(0 110 46.5)"><path d="M23.25 0 M23.25 0 C92.35 1.36, 160.32 -2.49, 196.75 0 M23.25 0 C90.61 -1.53, 158.53 -0.74, 196.75 0 M196.75 0 C212.93 -0.84, 221.51 7.44, 220 23.25 M196.75 0 C211.23 1.63, 221.57 6.11, 220 23.25 M220 23.25 C220.4 40.92, 220.36 57.34, 220 69.75 M220 23.25 C220.71 33.85, 220.55 44.46, 220 69.75 M220 69.75 C220.77 83.89, 212.94 93.89, 196.75 93 M220 69.75 C218.41 87.18, 211.84 94.7, 196.75 93 M196.75 93 C159.34 91.17, 122.31 93.27, 23.25 93 M196.75 93 C160.92 92.4, 125.64 93.74, 23.25 93 M23.25 93 C6.94 93.84, 0.26 84.14, 0 69.75 M23.25 93 C6.65 92.43, -2.21 85.48, 0 69.75 M0 69.75 C-0.84 55.07, 1.1 41.31, 0 23.25 M0 69.75 C0.24 56.47, -0.58 44.53, 0 23.25 M0 23.25 C-1.39 7.08, 6.38 1.25, 23.25 0 M0 23.25 C-1.56 9.32, 8.64 -1.11, 23.25 0" stroke="#1e1e1e" stroke-width="2" fill="none"></path></g><g transform="translate(117.54504675015096 39.700000000000045) rotate(0 103.38455200195312 16.80000000000001)"><text x="103.38455200195312" y="0" font-family="LocalFont, Segoe UI Emoji" font-size="28px" fill="#1e1e1e" text-anchor="middle" style="white-space: pre;" direction="ltr" dominant-baseline="text-before-edge">tabular data</text></g><g stroke-linecap="round" transform="translate(285.1654027554787 290.8973878557315) rotate(0 110 46.5)"><path d="M23.25 0 M23.25 0 C63.02 -0.63, 106.22 2.04, 196.75 0 M23.25 0 C67.55 0.98, 113.42 -0.45, 196.75 0 M196.75 0 C213.34 -1.17, 221.77 8.42, 220 23.25 M196.75 0 C213.6 0.73, 221.27 6.21, 220 23.25 M220 23.25 C219.86 36.52, 219.39 47.46, 220 69.75 M220 23.25 C219.47 34.88, 219.98 45.58, 220 69.75 M220 69.75 C218.4 83.91, 210.97 93.8, 196.75 93 M220 69.75 C219.18 87.53, 213.84 90.87, 196.75 93 M196.75 93 C155.4 94.92, 118.59 92.43, 23.25 93 M196.75 93 C136.95 91.79, 77.14 92.13, 23.25 93 M23.25 93 C7.71 91.82, 1.06 84.13, 0 69.75 M23.25 93 C6.82 93.95, -0.81 84.54, 0 69.75 M0 69.75 C-1.25 52.53, -0.07 35.16, 0 23.25 M0 69.75 C-0.36 58.05, 0.71 44.49, 0 23.25 M0 23.25 C-0.18 6.16, 6.6 -0.26, 23.25 0 M0 23.25 C-1.15 8.48, 6.66 -0.64, 23.25 0" stroke="#1e1e1e" stroke-width="2" fill="none"></path></g><g transform="translate(317.62698875401384 320.5973878557315) rotate(0 77.53841400146484 16.80000000000001)"><text x="77.53841400146484" y="0" font-family="LocalFont, Segoe UI Emoji" font-size="28px" fill="#1e1e1e" text-anchor="middle" style="white-space: pre;" direction="ltr" dominant-baseline="text-before-edge">variables</text></g><g mask="url(#mask-p-y6Y5SKG6uuTFTuqR9nZ)" stroke-linecap="round"><g transform="translate(251.01331209195087 105) rotate(0 57.309291348349916 92.62431984268528)"><path d="M-0.57 0.84 C18.51 31.58, 95.93 153.2, 115.19 183.62 M1.32 0.24 C20.3 31.23, 95.94 154.32, 114.84 185.01" stroke="#1e1e1e" stroke-width="2" fill="none"></path></g><g transform="translate(251.01331209195087 105) rotate(0 57.309291348349916 92.62431984268528)"><path d="M92.73 168.25 C99.08 174.65, 106.96 180.49, 113.48 185.7 M91.15 167.11 C98.49 171.92, 106.74 179.41, 114.48 186" stroke="#1e1e1e" stroke-width="2" fill="none"></path></g><g transform="translate(251.01331209195087 105) rotate(0 57.309291348349916 92.62431984268528)"><path d="M110.21 157.5 C110.29 167.63, 111.96 177.29, 113.48 185.7 M108.63 156.36 C109.88 165.02, 112.11 176.21, 114.48 186" stroke="#1e1e1e" stroke-width="2" fill="none"></path></g></g><mask id="mask-p-y6Y5SKG6uuTFTuqR9nZ"><rect x="0" y="0" fill="#fff" width="465.08168941563144" height="388.8973878557315"></rect><rect x="282.2013627533029" y="180.1486939278658" fill="#000" width="51.69227600097656" height="33.6" opacity="1"></rect></mask><g transform="translate(282.2013627533029 180.1486939278658) rotate(0 26.121240686997908 17.47562591481949)"><text x="25.84613800048828" y="0" font-family="LocalFont, Segoe UI Emoji" font-size="28px" fill="#1e1e1e" text-anchor="middle" style="white-space: pre;" direction="ltr" dominant-baseline="text-before-edge">has</text></g><g mask="url(#mask-KnLSPlR-8DF2-JqJZsv8Z)" stroke-linecap="round"><g transform="translate(203.35040073755545 105) rotate(0 -32.89682725857574 90.09246739084799)"><path d="M0.63 0.25 C-10.42 30.57, -54.6 150.73, -65.54 180.85 M-0.49 -0.67 C-11.77 29.41, -55.6 149.18, -66.43 179.15" stroke="#1e1e1e" stroke-width="2" fill="none"></path></g><g transform="translate(203.35040073755545 105) rotate(0 -32.89682725857574 90.09246739084799)"><path d="M-66.01 149.35 C-65.37 161.25, -65.13 172.46, -66.87 180.06 M-67.42 149.7 C-67.16 159.96, -65.83 171.35, -67.04 178.68" stroke="#1e1e1e" stroke-width="2" fill="none"></path></g><g transform="translate(203.35040073755545 105) rotate(0 -32.89682725857574 90.09246739084799)"><path d="M-46.73 156.37 C-53.11 165.79, -59.96 174.42, -66.87 180.06 M-48.14 156.72 C-54.87 164.41, -60.52 173.26, -67.04 178.68" stroke="#1e1e1e" stroke-width="2" fill="none"></path></g></g><mask id="mask-KnLSPlR-8DF2-JqJZsv8Z"><rect x="0" y="0" fill="#fff" width="369.0139472349788" height="385.05926672358"></rect><rect x="144.6724894883555" y="178.22963336178998" fill="#000" width="51.69227600097656" height="33.6" opacity="1"></rect></mask><g transform="translate(144.6724894883555 178.22963336178998) rotate(0 25.78108399062421 16.862834029058007)"><text x="25.84613800048828" y="0" font-family="LocalFont, Segoe UI Emoji" font-size="28px" fill="#1e1e1e" text-anchor="middle" style="white-space: pre;" direction="ltr" dominant-baseline="text-before-edge">has</text></g><g stroke-linecap="round" transform="translate(10 287.05926672358) rotate(0 110 46.5)"><path d="M23.25 0 M23.25 0 C93.99 1.56, 161.68 0.93, 196.75 0 M23.25 0 C68.13 0.18, 113.31 1.23, 196.75 0 M196.75 0 C214.02 0.39, 218.98 9.26, 220 23.25 M196.75 0 C212.04 -0.04, 219.53 8.29, 220 23.25 M220 23.25 C219.04 40.22, 222.31 57.54, 220 69.75 M220 23.25 C219.27 34.65, 220.55 46.89, 220 69.75 M220 69.75 C218.14 85.17, 213.53 93.78, 196.75 93 M220 69.75 C220.78 84, 212.73 91.51, 196.75 93 M196.75 93 C154.46 94.37, 114.76 93.64, 23.25 93 M196.75 93 C151.51 92.54, 104.9 93.25, 23.25 93 M23.25 93 C6.05 92.61, 0.65 85.01, 0 69.75 M23.25 93 C7.23 94.82, -2.23 87.5, 0 69.75 M0 69.75 C0.83 59.96, -0.8 52.84, 0 23.25 M0 69.75 C0.76 52.84, -0.07 38.18, 0 23.25 M0 23.25 C-0.41 6.36, 8.97 1.49, 23.25 0 M0 23.25 C1.65 9.9, 5.99 -0.08, 23.25 0" stroke="#1e1e1e" stroke-width="2" fill="none"></path></g><g transform="translate(16.615447998046875 316.75926672357997) rotate(0 103.38455200195312 16.80000000000001)"><text x="103.38455200195312" y="0" font-family="LocalFont, Segoe UI Emoji" font-size="28px" fill="#1e1e1e" text-anchor="middle" style="white-space: pre;" direction="ltr" dominant-baseline="text-before-edge">observations</text></g></svg>
